app/img/icons/ic--wine.svg

<svg xmlns="http://www.w3.org/2000/svg" preserveAspectRatio="xMidYMid" width="9.97" height="30.031" viewBox="0 0 9.97 30.031"><defs><style>.cls-1{fill:#fff;fill-rule:evenodd}</style></defs><path d="M-.011 13.755c0-1.778.466-2.679 1.58-3.646l.059-.049c.432-.394.872-.82.872-2.328V1.143c0-.64.425-1.156.924-1.156h3.12c.505 0 .931.516.931 1.156v6.589c0 1.574.472 1.984.93 2.377.801.688 1.574 1.361 1.574 3.646v15.122c0 .639-.413 1.155-.918 1.155H.913c-.505 0-.924-.516-.924-1.155V13.755zm1.848 10.179H8.13v-8.482H1.837v8.482zM8.13 25.32H1.837v2.401H8.13V25.32zM2.624 12.002c-.4.336-.78.663-.787 1.729v.328H8.13v-.304c0-1.073-.38-1.417-.78-1.753v-.008c-.773-.664-1.579-1.369-1.717-3.565H4.328c-.131 2.155-.904 2.876-1.658 3.524l-.046.049zM5.62 7.035V2.299H4.354v4.736H5.62z" class="cls-1"/></svg>

<svg xmlns="http://www.w3.org/2000/svg" xmlns:xlink="http://www.w3.org/1999/xlink" preserveAspectRatio="xMidYMid" width="9.97" height="30.031" viewBox="0 0 9.97 30.031">
  <defs>
    <style>
      .cls-1 {
        fill: #fff;
        fill-rule: evenodd;
      }
    </style>
  </defs>
  <path d="M-0.011,13.755 C-0.011,11.977 0.455,11.076 1.569,10.109 L1.628,10.060 C2.060,9.666 2.500,9.240 2.500,7.732 L2.500,1.143 C2.500,0.503 2.925,-0.013 3.424,-0.013 L3.444,-0.013 L6.544,-0.013 C7.049,-0.013 7.475,0.503 7.475,1.143 L7.475,1.176 L7.475,7.732 C7.475,9.306 7.947,9.716 8.405,10.109 L8.405,10.109 L8.405,10.109 C9.206,10.797 9.979,11.470 9.979,13.755 L9.979,28.877 C9.979,29.516 9.566,30.032 9.061,30.032 L9.035,30.032 L0.913,30.032 C0.408,30.032 -0.011,29.516 -0.011,28.877 L-0.011,28.844 L-0.011,13.755 L-0.011,13.755 ZM1.837,23.934 L1.837,23.934 L8.130,23.934 L8.130,15.452 L1.837,15.452 L1.837,23.934 L1.837,23.934 ZM8.130,25.320 L8.130,25.320 L1.837,25.320 L1.837,27.721 L8.130,27.721 L8.130,25.320 L8.130,25.320 ZM2.624,12.002 L2.624,12.002 C2.224,12.338 1.844,12.665 1.837,13.731 L1.837,13.755 L1.837,14.059 L8.130,14.059 L8.130,13.755 C8.130,12.682 7.750,12.338 7.350,12.002 L7.350,11.994 C6.577,11.330 5.771,10.625 5.633,8.429 L4.328,8.429 C4.197,10.584 3.424,11.305 2.670,11.953 L2.624,12.002 L2.624,12.002 ZM5.620,7.035 L5.620,7.035 L5.620,2.299 L4.354,2.299 L4.354,7.035 L5.620,7.035 L5.620,7.035 Z" class="cls-1"/>
</svg>
